frontend/src/assets/Pediatricians.svg

<svg width="127" height="126" viewBox="0 0 127 126" fill="none" xmlns="http://www.w3.org/2000/svg">
<circle cx="63.434" cy="62.8325" r="62.8325" fill="url(#paint0_linear_4741_2342)"/>
<path d="M91.6459 69.9102H36.5352C30.5962 69.9102 25.7344 74.5876 25.7344 80.3126C25.7344 86.0302 30.5962 90.715 36.5352 90.715H91.6459C97.5848 90.715 102.447 86.0376 102.447 80.3126C102.454 74.5876 97.5922 69.9102 91.6459 69.9102Z" fill="#EDC391"/>
<path d="M93.4252 43.4631C86.3354 32.6771 77.1945 28.9883 63.9148 28.9883C50.6351 28.9883 41.4943 32.6697 34.4044 43.4631C29.2106 51.3719 27.9564 63.8032 29.5573 76.6107C31.0993 88.9239 32.3756 95.6818 40.0188 102.58C46.6586 108.57 55.674 109.862 63.4058 109.862H64.4239C72.1556 109.862 81.1784 108.57 87.8109 102.58C95.4541 95.6818 96.7304 88.9239 98.2723 76.6107C99.8733 63.8032 98.6191 51.3645 93.4252 43.4631Z" fill="#F7DECE"/>
<path d="M74.9048 44.6416C75.0081 44.5309 75.1114 44.4276 75.2147 44.3169C75.2884 44.2358 75.3622 44.1473 75.436 44.0661C75.6057 43.8669 75.768 43.6677 75.9229 43.4611L75.9893 43.3726C76.1369 43.1734 76.2697 42.9668 76.4025 42.7529C76.4393 42.6939 76.4762 42.6275 76.5131 42.5684C76.6385 42.3545 76.764 42.1405 76.882 41.9118C76.9041 41.875 76.9189 41.8454 76.9336 41.8086C77.214 41.2552 77.4574 40.6576 77.6566 40.0306L77.6788 39.9642C78.0846 38.6583 78.3206 37.2049 78.3206 35.5671C78.3206 32.2915 77.1402 29.7019 75.3401 27.7468C75.3179 27.7247 75.3032 27.71 75.2884 27.6878C75.1483 27.5403 75.0007 27.3927 74.8532 27.2452L74.7646 27.1566C74.5929 26.9933 74.4157 26.8359 74.2334 26.6845C74.0859 26.5591 73.9383 26.441 73.7908 26.323C73.7539 26.2935 73.717 26.2713 73.6875 26.2418L73.2006 25.8877C73.1711 25.8729 73.1489 25.8508 73.1194 25.8361C72.5292 25.4377 71.9169 25.0835 71.2824 24.7811C71.2603 24.7663 71.2308 24.7589 71.2086 24.7442C71.0242 24.6556 70.8397 24.5745 70.6553 24.4933L70.4856 24.4196C70.3233 24.3532 70.161 24.2868 69.9987 24.2277C69.9397 24.2056 69.8733 24.1835 69.8143 24.1613C69.6593 24.1023 69.5044 24.0507 69.3568 23.999L69.1576 23.9326C69.0027 23.881 68.8552 23.8367 68.7002 23.7925C68.6338 23.7703 68.5674 23.7556 68.4937 23.7334C68.3387 23.6892 68.1838 23.6523 68.0289 23.6154L67.8371 23.5711C67.6674 23.5342 67.4977 23.4974 67.3354 23.4605C67.2837 23.4531 67.2321 23.4383 67.1805 23.431C66.7452 23.335 66.3099 23.2686 65.8746 23.217C65.8156 23.2096 65.7566 23.2096 65.6976 23.2022C65.5426 23.1875 65.3951 23.1727 65.2401 23.1654C65.1516 23.158 65.0705 23.158 64.9819 23.1506C64.8565 23.1432 64.7385 23.1358 64.6204 23.1358C64.5245 23.1358 64.4286 23.1285 64.3253 23.1285C64.2589 23.1285 64.1925 23.1211 64.1335 23.1211H64.0597C63.7425 23.1211 63.4253 23.1358 63.1154 23.158C63.0564 23.1654 62.9974 23.1654 62.9383 23.1727C62.6211 23.2022 62.3112 23.2318 62.0161 23.2834C58.3937 23.8736 55.4648 25.777 53.6352 27.6362C52.5359 28.7502 51.835 29.8495 51.6211 30.6389H51.6285C53.9745 30.0413 57.0067 29.5175 60.3857 29.3404C64.9598 29.0232 68.7814 31.6275 68.597 35.6261C68.5748 36.1057 68.5158 36.5557 68.4346 36.9762L68.4125 37.1016C68.3756 37.264 68.3314 37.4263 68.2871 37.5812C68.265 37.655 68.2428 37.7287 68.2281 37.7951C68.1838 37.9279 68.1395 38.0607 68.0879 38.1935C68.0584 38.2747 68.0215 38.3558 67.9846 38.437C67.933 38.555 67.8813 38.6657 67.8297 38.769C67.7854 38.8575 67.7412 38.9387 67.6895 39.0198C67.6379 39.1157 67.5788 39.2116 67.5198 39.3002C67.4608 39.3887 67.3944 39.4772 67.3354 39.5658C67.2837 39.6395 67.2321 39.7133 67.1731 39.7871C67.0772 39.9051 66.9739 40.0158 66.8706 40.1191C66.8411 40.1486 66.8116 40.1855 66.7821 40.215C66.6419 40.3552 66.4943 40.4806 66.3394 40.606C66.3099 40.6281 66.273 40.6503 66.2435 40.6724C66.1179 40.77 65.9874 40.8611 65.8525 40.9454C65.8082 40.9675 65.7713 40.997 65.7271 41.0192C65.5943 41.1003 65.4615 41.1741 65.3287 41.2405C65.2844 41.2626 65.2475 41.2847 65.2033 41.2995C65.0631 41.3659 64.9155 41.4323 64.7606 41.4913C64.7311 41.5061 64.6942 41.5208 64.6573 41.5282C64.4876 41.5946 64.3179 41.6536 64.1409 41.7053C64.1261 41.7126 64.1114 41.7126 64.0966 41.72C63.2998 41.9561 62.444 42.0594 61.5735 42.0594C58.9471 42.0594 56.2247 41.0856 54.6607 39.6912C54.5314 39.5736 54.3633 39.5079 54.1885 39.5067C54.1516 39.5067 54.1147 39.5215 54.0852 39.5289C54.0557 39.5363 54.0188 39.5363 53.9893 39.551C53.945 39.5658 53.9008 39.5805 53.8565 39.6027C53.7827 39.6395 53.7237 39.6838 53.6647 39.7355C53.6499 39.7502 53.6426 39.765 53.6278 39.7797C53.5762 39.8387 53.5319 39.9125 53.495 39.9863C53.4876 40.001 53.4876 40.0084 53.4802 40.0232C53.4434 40.1191 53.4212 40.2297 53.436 40.3478C53.6573 42.5758 55.0591 45.3646 58.3937 47.4598C61.5661 49.4591 68.2428 49.4813 72.994 46.2277L73.1268 46.1392C73.267 46.0359 73.4145 45.9326 73.5547 45.8294C73.6137 45.7851 73.6801 45.7334 73.7391 45.6818C73.9457 45.5195 74.1449 45.3498 74.3367 45.1727L74.6245 44.9072C74.7277 44.826 74.8163 44.7301 74.9048 44.6416Z" fill="#312D2D"/>
<path d="M74.9048 44.6416C75.0081 44.5309 75.1114 44.4276 75.2147 44.3169C75.2884 44.2358 75.3622 44.1473 75.436 44.0661C75.6057 43.8669 75.768 43.6677 75.9229 43.4611L75.9893 43.3726C76.1369 43.1734 76.2697 42.9668 76.4025 42.7529C76.4393 42.6939 76.4762 42.6275 76.5131 42.5684C76.6385 42.3545 76.764 42.1405 76.882 41.9118C76.9041 41.875 76.9189 41.8454 76.9336 41.8086C77.214 41.2552 77.4574 40.6576 77.6566 40.0306L77.6788 39.9642C78.0845 38.6583 78.3206 37.2049 78.3206 35.5671C78.3206 32.2915 77.1402 29.7019 75.3401 27.7468C75.3179 27.7247 75.3032 27.71 75.2884 27.6878C75.1483 27.5403 75.0007 27.3927 74.8532 27.2452L74.7646 27.1566C74.5929 26.9933 74.4157 26.8359 74.2334 26.6845C74.0859 26.5591 73.9383 26.441 73.7908 26.323C73.7539 26.2935 73.717 26.2713 73.6875 26.2418L73.2006 25.8877C73.1711 25.8729 73.1489 25.8508 73.1194 25.8361C72.5292 25.4377 71.9169 25.0835 71.2824 24.7811C71.2603 24.7663 71.2308 24.7589 71.2086 24.7442C71.0242 24.6556 70.8397 24.5745 70.6553 24.4933L70.4856 24.4196C70.3233 24.3532 70.161 24.2868 69.9987 24.2277C69.9397 24.2056 69.8733 24.1835 69.8143 24.1613C69.6593 24.1023 69.5044 24.0507 69.3568 23.999L69.1576 23.9326C69.0027 23.881 68.8552 23.8367 68.7002 23.7925C68.6338 23.7703 68.5674 23.7556 68.4937 23.7334C68.3387 23.6892 68.1838 23.6523 68.0289 23.6154L67.8371 23.5711C67.6674 23.5342 67.4977 23.4974 67.3354 23.4605C67.2837 23.4531 67.2321 23.4383 67.1805 23.431C66.7452 23.335 66.3099 23.2686 65.8746 23.217C65.8156 23.2096 65.7566 23.2096 65.6976 23.2022C65.5426 23.1875 65.3951 23.1727 65.2401 23.1654C65.1516 23.158 65.0705 23.158 64.9819 23.1506C64.8565 23.1432 64.7385 23.1358 64.6204 23.1358C64.5245 23.1358 64.4286 23.1285 64.3253 23.1285C64.2589 23.1285 64.1925 23.1211 64.1335 23.1211H64.0597C63.7425 23.1211 63.4253 23.1358 63.1154 23.158C63.0564 23.1654 62.9974 23.1654 62.9383 23.1727C62.6211 23.2022 62.3112 23.2318 62.0161 23.2834C58.3937 23.8736 55.4648 25.777 53.6352 27.6362C52.5359 28.7502 51.835 29.8495 51.6211 30.6389H51.6285C53.9745 30.0413 57.0067 29.5175 60.3857 29.3404C64.9598 29.0232 68.7814 31.6275 68.597 35.6261C68.5748 36.1057 68.5158 36.5557 68.4346 36.9762L68.4125 37.1016C68.3756 37.264 68.3314 37.4263 68.2871 37.5812C68.265 37.655 68.2428 37.7287 68.2281 37.7951C68.1838 37.9279 68.1395 38.0607 68.0879 38.1935C68.0584 38.2747 68.0215 38.3558 67.9846 38.437C67.933 38.555 67.8813 38.6657 67.8297 38.769C67.7854 38.8575 67.7412 38.9387 67.6895 39.0198C67.6379 39.1157 67.5788 39.2116 67.5198 39.3002C67.4608 39.3887 67.3944 39.4772 67.3354 39.5658C67.2837 39.6395 67.2321 39.7133 67.1731 39.7871C67.0772 39.9051 66.9739 40.0158 66.8706 40.1191C66.8411 40.1486 66.8116 40.1855 66.7821 40.215C66.6419 40.3552 66.4943 40.4806 66.3394 40.606C66.3099 40.6281 66.273 40.6503 66.2435 40.6724C66.1179 40.77 65.9874 40.8611 65.8525 40.9454C65.8082 40.9675 65.7713 40.997 65.7271 41.0192C65.5943 41.1003 65.4615 41.1741 65.3287 41.2405C65.2844 41.2626 65.2475 41.2847 65.2033 41.2995C65.0631 41.3659 64.9155 41.4323 64.7606 41.4913C64.7311 41.5061 64.6942 41.5208 64.6573 41.5282C64.4876 41.5946 64.3179 41.6536 64.1409 41.7053C64.1261 41.7126 64.1114 41.7126 64.0966 41.72C63.2998 41.9561 62.444 42.0594 61.5735 42.0594C58.9471 42.0594 56.2247 41.0856 54.6607 39.6912C54.5314 39.5736 54.3633 39.5079 54.1885 39.5067C54.1516 39.5067 54.1147 39.5215 54.0852 39.5289C54.0557 39.5363 54.0188 39.5363 53.9893 39.551C53.945 39.5658 53.9008 39.5805 53.8565 39.6027C53.7827 39.6395 53.7237 39.6838 53.6647 39.7355C53.6499 39.7502 53.6426 39.765 53.6278 39.7797C53.5762 39.8387 53.5319 39.9125 53.495 39.9863C53.4876 40.001 53.4876 40.0084 53.4802 40.0232C53.4434 40.1191 53.4212 40.2297 53.436 40.3478C53.6573 42.5758 55.0591 45.3646 58.3937 47.4598C61.5661 49.4591 68.2428 49.4813 72.994 46.2277L73.1268 46.1392C73.267 46.0359 73.4145 45.9326 73.5547 45.8293C73.6137 45.7851 73.6801 45.7334 73.7391 45.6818C73.9457 45.5195 74.1449 45.3498 74.3367 45.1727L74.6245 44.9072C74.7277 44.826 74.8163 44.7301 74.9048 44.6416Z" fill="#577CFF"/>
<path d="M67.9367 80.294C67.8375 80.2533 67.7333 80.226 67.6269 80.2129H60.7657C60.6624 80.2276 60.5591 80.2498 60.4559 80.294C59.8361 80.5449 59.4894 81.1941 59.7845 81.8729C60.0796 82.559 61.4444 84.4845 64.1963 84.4845C66.9481 84.4845 68.313 82.559 68.6081 81.8729C68.8958 81.1867 68.5565 80.5449 67.9367 80.294Z" fill="#DBA689"/>
<path d="M48.0522 80.973C50.6925 80.973 52.8329 78.7566 52.8329 76.0226C52.8329 73.2886 50.6925 71.0723 48.0522 71.0723C45.4119 71.0723 43.2715 73.2886 43.2715 76.0226C43.2715 78.7566 45.4119 80.973 48.0522 80.973Z" fill="#312D2D"/>
<path d="M80.3061 80.973C82.9464 80.973 85.0868 78.7566 85.0868 76.0226C85.0868 73.2886 82.9464 71.0723 80.3061 71.0723C77.6658 71.0723 75.5254 73.2886 75.5254 76.0226C75.5254 78.7566 77.6658 80.973 80.3061 80.973Z" fill="#312D2D"/>
<path d="M71.0677 90.5754C68.4118 92.1542 59.7062 92.1542 57.0577 90.5754C55.5305 89.6679 53.9738 91.0549 54.6083 92.4419C55.228 93.8068 59.9792 96.9644 64.0885 96.9644C68.1905 96.9644 72.8826 93.8068 73.5023 92.4419C74.1294 91.0549 72.5875 89.6679 71.0677 90.5754Z" fill="#444444"/>
<defs>
<linearGradient id="paint0_linear_4741_2342" x1="63.434" y1="0" x2="63.434" y2="125.665" gradientUnits="userSpaceOnUse">
<stop stop-color="#AFC1DC"/>
<stop offset="1" stop-color="#E2E5ED"/>
</linearGradient>
</defs>
</svg>

<svg id="Layer_1" data-name="Layer 1" xmlns="http://www.w3.org/2000/svg" xmlns:xlink="http://www.w3.org/1999/xlink" viewBox="0 0 125.66 125.67"><defs><style>.cls-1{fill:url(#linear-gradient);}.cls-2{fill:#edc391;}.cls-3{fill:#f7dece;}.cls-4{fill:#312d2d;}.cls-5{fill:#319966;}.cls-6{fill:#dba689;}.cls-7{fill:#444;}</style><linearGradient id="linear-gradient" x1="63.43" y1="128" x2="63.43" y2="2.33" gradientTransform="matrix(1, 0, 0, -1, -0.6, 128)" gradientUnits="userSpaceOnUse"><stop offset="0" stop-color="#afc1dc"/><stop offset="1" stop-color="#e2e5ed"/></linearGradient></defs><title>Pediatricians</title><circle class="cls-1" cx="62.83" cy="62.83" r="62.83"/><path class="cls-2" d="M91.65,69.91H36.54a10.41,10.41,0,1,0,0,20.8H91.65a10.41,10.41,0,1,0,0-20.8Z" transform="translate(-0.6)"/><path class="cls-3" d="M93.43,43.46C86.34,32.68,77.19,29,63.91,29S41.49,32.67,34.4,43.46C29.21,51.37,28,63.8,29.56,76.61c1.54,12.31,2.82,19.07,10.46,26,6.64,6,15.65,7.28,23.39,7.28h1c7.74,0,16.76-1.29,23.39-7.28,7.64-6.9,8.92-13.66,10.46-26C99.87,63.8,98.62,51.36,93.43,43.46Z" transform="translate(-0.6)"/><path class="cls-4" d="M74.9,44.64l.31-.32.23-.25c.17-.2.33-.4.48-.61l.07-.09a6.65,6.65,0,0,0,.41-.62,1.74,1.74,0,0,0,.11-.18c.13-.22.25-.43.37-.66a.31.31,0,0,0,.05-.1A11.84,11.84,0,0,0,77.66,40l0-.07a14.85,14.85,0,0,0,.64-4.39,11.2,11.2,0,0,0-3-7.82l0-.06c-.14-.15-.29-.3-.44-.44l-.09-.09c-.17-.17-.34-.32-.53-.48l-.44-.36-.1-.08-.49-.35-.08-.05a13.49,13.49,0,0,0-1.84-1.06l-.07,0-.55-.25-.17-.07L70,24.23l-.19-.07L69.36,24l-.2-.07-.46-.14-.21-.06L68,23.62l-.19-.05-.5-.11-.16,0a11.52,11.52,0,0,0-1.31-.21l-.17,0c-.16,0-.3,0-.46,0l-.26,0h-.92c-.32,0-.63,0-.94,0h-.18c-.32,0-.63.06-.92.11a15.43,15.43,0,0,0-8.38,4.36,7.71,7.71,0,0,0-2,3h0a45.82,45.82,0,0,1,8.76-1.3C65,29,68.78,31.63,68.6,35.63A9.21,9.21,0,0,1,68.43,37l0,.12c0,.16-.08.33-.12.48a.9.9,0,0,0-.06.22l-.14.39a2.72,2.72,0,0,1-.11.25q-.08.18-.15.33a2,2,0,0,1-.14.25,2.61,2.61,0,0,1-.17.28c-.06.09-.13.18-.18.27l-.17.22a3.18,3.18,0,0,1-.3.33l-.09.1c-.14.14-.29.26-.44.39l-.1.06a3.89,3.89,0,0,1-.39.28l-.12.07-.4.22-.13.06-.44.19-.1,0-.52.18h0a8.83,8.83,0,0,1-2.53.34,10.94,10.94,0,0,1-6.91-2.37.69.69,0,0,0-.47-.18l-.1,0-.1,0-.13.05a.72.72,0,0,0-.2.14l0,0a1.1,1.1,0,0,0-.14.21,0,0,0,0,1,0,0,.61.61,0,0,0,0,.33c.22,2.23,1.62,5,5,7.11s9.85,2,14.6-1.23l.14-.09.42-.31.19-.15c.21-.16.4-.33.6-.51l.28-.26A1.8,1.8,0,0,0,74.9,44.64Z" transform="translate(-0.6)"/><path class="cls-5" d="M74.9,44.64l.31-.32.23-.25c.17-.2.33-.4.48-.61l.07-.09a6.65,6.65,0,0,0,.41-.62,1.74,1.74,0,0,0,.11-.18c.13-.22.25-.43.37-.66a.31.31,0,0,0,.05-.1A11.84,11.84,0,0,0,77.66,40l0-.07a14.85,14.85,0,0,0,.64-4.39,11.2,11.2,0,0,0-3-7.82l0-.06c-.14-.15-.29-.3-.44-.44l-.09-.09c-.17-.17-.34-.32-.53-.48l-.44-.36-.1-.08-.49-.35-.08-.05a13.49,13.49,0,0,0-1.84-1.06l-.07,0-.55-.25-.17-.07L70,24.23l-.19-.07L69.36,24l-.2-.07-.46-.14-.21-.06L68,23.62l-.19-.05-.5-.11-.16,0a11.52,11.52,0,0,0-1.31-.21l-.17,0c-.16,0-.3,0-.46,0l-.26,0h-.92c-.32,0-.63,0-.94,0h-.18c-.32,0-.63.06-.92.11a15.43,15.43,0,0,0-8.38,4.36,7.71,7.71,0,0,0-2,3h0a45.82,45.82,0,0,1,8.76-1.3C65,29,68.78,31.63,68.6,35.63A9.21,9.21,0,0,1,68.43,37l0,.12c0,.16-.08.33-.12.48a.9.9,0,0,0-.06.22l-.14.39a2.72,2.72,0,0,1-.11.25q-.08.18-.15.33a2,2,0,0,1-.14.25,2.61,2.61,0,0,1-.17.28c-.06.09-.13.18-.18.27l-.17.22a3.18,3.18,0,0,1-.3.33l-.09.1c-.14.14-.29.26-.44.39l-.1.06a3.89,3.89,0,0,1-.39.28l-.12.07-.4.22-.13.06-.44.19-.1,0-.52.18h0a8.83,8.83,0,0,1-2.53.34,10.94,10.94,0,0,1-6.91-2.37.69.69,0,0,0-.47-.18l-.1,0-.1,0-.13.05a.72.72,0,0,0-.2.14l0,0a1.1,1.1,0,0,0-.14.21,0,0,0,0,1,0,0,.61.61,0,0,0,0,.33c.22,2.23,1.62,5,5,7.11s9.85,2,14.6-1.23l.14-.09.42-.31.19-.15c.21-.16.4-.33.6-.51l.28-.26A1.8,1.8,0,0,0,74.9,44.64Z" transform="translate(-0.6)"/><path class="cls-6" d="M67.94,80.29a1.77,1.77,0,0,0-.31-.08H60.77a1.57,1.57,0,0,0-.31.08,1.17,1.17,0,0,0-.68,1.58,5,5,0,0,0,8.83,0A1.16,1.16,0,0,0,67.94,80.29Z" transform="translate(-0.6)"/><path class="cls-4" d="M48.05,81a5,5,0,1,0-4.78-5A4.86,4.86,0,0,0,48.05,81Z" transform="translate(-0.6)"/><path class="cls-4" d="M80.31,81a5,5,0,1,0-4.78-5A4.86,4.86,0,0,0,80.31,81Z" transform="translate(-0.6)"/><path class="cls-7" d="M71.07,90.58c-2.66,1.57-11.36,1.57-14,0a1.59,1.59,0,0,0-2.45,1.86C55.23,93.81,60,97,64.09,97s8.79-3.15,9.41-4.52A1.58,1.58,0,0,0,71.07,90.58Z" transform="translate(-0.6)"/></svg>
